icon-themes/breeze_svg/cmd/lc_starshapes.star24.svg

<svg viewBox="0 0 24 24" xmlns="http://www.w3.org/2000/svg"><path d="m12 4-.53125 4.03125-1.53125-3.75.53125 4.03125-2.46875-3.25 1.5625 3.75-3.21875-2.46875 2.46875 3.21875-3.75-1.5625 3.25 2.46875-4.03125-.53125 3.75 1.53125-4.03125.53125 4.03125.53125-3.75 1.53125 4.03125-.53125-3.25 2.46875 3.75-1.5625-2.46875 3.21875 2.65625-2.037109v-2.619141l1-1h2 3 5l-4.03125-.53125 3.75-1.53125-4.03125.53125 3.25-2.46875-3.75 1.5625 2.46875-3.21875-3.21875 2.46875 1.5625-3.75-2.46875 3.25.53125-4.03125-1.53125 3.75zm-.177734 9c-.247539 0-.520189.038234-.81836.115234-.298172.0767-.631431.203116-.974609.353516v1.052734c.337553-.2057.704641-.320575 1-.421875.298171-.101.529646-.113281.796875-.113281.376934 0 .60637.039231.839844.269531.236287.2303.341796.388607.341796.753907.000001.2241-.079748.413184-.189453.646484-.106891.2303-.207613.362566-.480468.697266-.219476.2414-.533975.638759-1.09375 1.255859-.556961.6141-.908934 1.038997-1.232422 1.404297l-.011719.986328h4v-1.037109l-2.759766.039062c.686357-.7644 1.003925-1.142706 1.38086-1.566406.376934-.4267.599602-.684438.669922-.773438.255977-.3439.431703-.642831.527343-.894531.098448-.2548.148438-.52414.148438-.80664 0-.5957-.193846-1.069682-.582031-1.425782s-.909899-.535156-1.5625-.535156zm6.177734 0-3 4.238281v.761719h3v2h1v-2h1v-1h-1v-4zm0 1.476562v2.523438h-1.703125z" fill="#4d4d4d"/></svg>

<svg xmlns="http://www.w3.org/2000/svg" viewBox="0 0 24 24">
 <path 
     style="fill:#4d4d4d" 
     d="M 12 4 L 11.46875 8.03125 L 9.9375 4.28125 L 10.46875 8.3125 L 8 5.0625 L 9.5625 8.8125 L 6.34375 6.34375 L 8.8125 9.5625 L 5.0625 8 L 8.3125 10.46875 L 4.28125 9.9375 L 8.03125 11.46875 L 4 12 L 8.03125 12.53125 L 4.28125 14.0625 L 8.3125 13.53125 L 5.0625 16 L 8.8125 14.4375 L 6.34375 17.65625 L 9 15.619141 L 9 13 L 10 12 L 12 12 L 15 12 L 20 12 L 15.96875 11.46875 L 19.71875 9.9375 L 15.6875 10.46875 L 18.9375 8 L 15.1875 9.5625 L 17.65625 6.34375 L 14.4375 8.8125 L 16 5.0625 L 13.53125 8.3125 L 14.0625 4.28125 L 12.53125 8.03125 L 12 4 z M 11.822266 13 C 11.574727 13 11.302077 13.038234 11.003906 13.115234 C 10.705734 13.191934 10.372475 13.31835 10.029297 13.46875 L 10.029297 14.521484 C 10.36685 14.315784 10.733938 14.200909 11.029297 14.099609 C 11.327468 13.998609 11.558943 13.986328 11.826172 13.986328 C 12.203106 13.986328 12.432542 14.025559 12.666016 14.255859 C 12.902303 14.486159 13.007812 14.644466 13.007812 15.009766 C 13.007813 15.233866 12.928064 15.42295 12.818359 15.65625 C 12.711468 15.88655 12.610746 16.018816 12.337891 16.353516 C 12.118415 16.594916 11.803916 16.992275 11.244141 17.609375 C 10.68718 18.223475 10.335207 18.648372 10.011719 19.013672 L 10 20 L 14 20 L 14 18.962891 L 11.240234 19.001953 C 11.926591 18.237553 12.244159 17.859247 12.621094 17.435547 C 12.998028 17.008847 13.220696 16.751109 13.291016 16.662109 C 13.546993 16.318209 13.722719 16.019278 13.818359 15.767578 C 13.916807 15.512778 13.966797 15.243438 13.966797 14.960938 C 13.966797 14.365238 13.772951 13.891256 13.384766 13.535156 C 12.996581 13.179056 12.474867 13 11.822266 13 z M 18 13 L 15 17.238281 L 15 18 L 18 18 L 18 20 L 19 20 L 19 18 L 20 18 L 20 17 L 19 17 L 19 13 L 18 13 z M 18 14.476562 L 18 17 L 16.296875 17 L 18 14.476562 z "
     />
 </svg>
